static/assets/images/icons/dextools.svg

<svg width="256" height="256" viewBox="0 0 256 256" fill="none" xmlns="http://www.w3.org/2000/svg">
<path fill-rule="evenodd" clip-rule="evenodd" d="M105.606 39.3091C93.7053 45.5155 83.9691 50.7674 83.9712 50.9811C83.9765 51.5324 112.533 66.0113 113.546 65.976C114.007 65.9605 117.352 64.4191 120.978 62.5511L127.573 59.1552L134.775 62.8616L141.977 66.5686L153.771 61.2627C171.542 53.2676 173.388 52.3914 173.099 52.0971C172.715 51.7065 166.341 48.2782 149.047 39.1628C140.689 34.7573 132.577 30.4378 131.019 29.5637C129.462 28.6897 127.976 27.9866 127.716 28.0002C127.456 28.0138 117.506 33.1028 105.606 39.3091ZM53.4106 66.3693L41.0223 72.7758V100.892C41.0223 116.357 41.185 129.009 41.3846 129.009C41.5834 129.009 47.6784 126.364 54.9287 123.131L68.1111 117.253V87.6157L74.5529 91.1294C79.5169 93.8345 84.4838 96.5342 89.4538 99.2284L97.9126 103.814L101.677 102.11C104.037 101.039 106.393 99.9583 108.744 98.8671C110.561 98.0201 115.021 96.009 118.654 94.3972C122.288 92.7848 125.652 91.1633 126.129 90.7938C126.763 90.3029 119.037 86.0284 97.5524 74.9829C81.3581 66.657 67.5886 59.8713 66.9536 59.9038C66.3186 59.9363 60.2242 62.8454 53.4106 66.3693ZM175.331 68.1684C166.894 71.9818 159.985 75.2542 159.977 75.4408C159.97 75.6272 164.568 78.3647 170.197 81.5232C175.825 84.6823 180.43 87.436 180.43 87.6433C180.43 87.8503 175.45 90.2662 169.363 93.0131C163.276 95.7594 147.89 102.716 135.172 108.472L92.5569 127.757C81.8371 132.609 72.1744 136.982 71.0844 137.476C49.1885 147.4 43.1702 150.154 42.3437 150.626C41.5127 151.102 41.3244 153.867 41.1765 167.743L41 184.293L52.0781 189.944L63.156 195.595L78.5171 188.654C86.966 184.837 93.8783 181.514 93.8783 181.269C93.8783 181.025 92.3171 180.007 90.4097 179.005C88.5015 178.004 84.5624 175.786 81.6553 174.077C78.7485 172.367 75.8499 170.799 75.2135 170.591C74.5774 170.384 74.0661 170.021 74.0765 169.784C74.087 169.548 80.8514 166.331 89.1075 162.635C105.143 155.457 117.415 149.925 143.761 137.996C155.542 132.664 167.325 127.334 179.108 122.008C189.465 117.328 201.506 111.862 205.867 109.861L213.795 106.224L213.971 89.4858L214.149 72.7481L202.913 66.9741C196.733 63.7988 191.45 61.2085 191.173 61.218C190.897 61.2267 183.768 64.3541 175.331 68.1684ZM210.785 128.554C209.129 129.364 205.859 130.88 203.517 131.923C201.176 132.966 196.733 134.973 193.644 136.384L188.028 138.948L187.9 153.643C187.829 161.725 187.532 168.302 187.239 168.259C186.574 168.16 176.049 162.756 165.468 157.08C157.832 152.983 157.352 152.821 155.558 153.71C154.521 154.225 148.32 157.009 141.779 159.898C135.238 162.787 129.673 165.339 129.411 165.57C129.15 165.801 142.315 172.945 158.666 181.446L188.396 196.902L201.096 190.325C208.08 186.707 214.019 183.408 214.293 182.993C214.908 182.06 214.856 126.954 214.239 127.028C213.995 127.058 212.441 127.744 210.785 128.554ZM140.458 193.235C138.255 194.183 136.052 195.133 133.851 196.084C127.202 198.963 128.505 199.059 120.595 195.116C115.327 192.491 113.056 191.681 112.07 192.074C111.331 192.369 104.967 195.235 97.9285 198.443C90.8899 201.651 84.8868 204.276 84.5882 204.276C81.635 204.276 86.5446 207.213 105.49 216.78L127.708 228L137.056 223.379C142.197 220.838 152.568 215.749 160.101 212.071C167.635 208.391 173.705 205.286 173.592 205.168C173.477 205.052 167.165 201.806 159.564 197.957L145.743 190.958L140.458 193.235Z" fill="black"/>
</svg>

<svg xmlns="http://www.w3.org/2000/svg" viewBox="0 0 256 256"><path fill-rule="evenodd" d="M105.606 39.31c-11.9 6.206-21.637 11.457-21.635 11.671.005.551 28.562 15.03 29.575 14.995.461-.016 3.806-1.557 7.432-3.425l6.595-3.396 7.202 3.707 7.202 3.707 11.794-5.306c17.771-7.995 19.617-8.872 19.328-9.166-.384-.39-6.758-3.819-24.052-12.934-8.358-4.406-16.47-8.725-18.028-9.6-1.557-.873-3.043-1.576-3.303-1.563s-10.21 5.103-22.11 11.31M53.411 66.37l-12.389 6.406v28.116c0 15.465.163 28.117.363 28.117.198 0 6.293-2.645 13.544-5.878l13.182-5.878V87.616l6.442 3.513q7.446 4.058 14.9 8.1l8.46 4.585 3.764-1.704a911 911 0 0 0 7.067-3.243c1.817-.847 6.277-2.858 9.91-4.47s6.998-3.234 7.475-3.603c.634-.491-7.092-4.766-28.577-15.811-16.194-8.326-29.963-15.112-30.598-15.08s-6.73 2.942-13.543 6.466m121.92 1.798c-8.437 3.814-15.346 7.086-15.354 7.273s4.591 2.924 10.22 6.082c5.628 3.16 10.233 5.913 10.233 6.12s-4.98 2.623-11.067 5.37-21.473 9.703-34.191 15.459l-42.615 19.285-21.473 9.719c-21.896 9.924-27.914 12.678-28.74 13.15-.831.476-1.02 3.241-1.168 17.117L41 184.293l11.078 5.651 11.078 5.651 15.361-6.941c8.449-3.817 15.361-7.14 15.361-7.385 0-.244-1.56-1.262-3.468-2.264-1.909-1.001-5.848-3.219-8.755-4.928-2.906-1.71-5.805-3.278-6.442-3.486-.636-.207-1.147-.57-1.136-.807.01-.236 6.774-3.453 15.03-7.149 16.036-7.178 28.308-12.71 54.654-24.639a79745 79745 0 0 1 35.347-15.988 7174 7174 0 0 0 26.759-12.147l7.928-3.637.176-16.738.178-16.738-11.236-5.774c-6.18-3.175-11.463-5.766-11.74-5.756-.276.009-7.405 3.136-15.842 6.95m35.454 60.386c-1.656.81-4.926 2.326-7.268 3.369s-6.784 3.05-9.873 4.461l-5.616 2.564-.128 14.695c-.071 8.082-.368 14.659-.661 14.616-.665-.099-11.19-5.503-21.771-11.179-7.636-4.097-8.116-4.259-9.91-3.37-1.037.515-7.238 3.299-13.779 6.188s-12.106 5.441-12.368 5.672c-.261.231 12.904 7.375 29.255 15.876l29.73 15.456 12.7-6.577c6.984-3.618 12.923-6.917 13.197-7.332.615-.933.563-56.039-.054-55.965-.244.03-1.798.716-3.454 1.526m-70.327 64.681a4866 4866 0 0 0-6.607 2.849c-6.649 2.879-5.346 2.975-13.256-.968-5.268-2.625-7.539-3.435-8.525-3.042-.739.295-7.103 3.161-14.141 6.369-7.04 3.208-13.042 5.833-13.34 5.833-2.954 0 1.956 2.937 20.901 12.504L127.708 228l9.348-4.621c5.141-2.541 15.512-7.63 23.045-11.308 7.534-3.68 13.604-6.785 13.491-6.903-.115-.116-6.427-3.362-14.028-7.211l-13.821-6.999z" clip-rule="evenodd"/></svg>
